X: 37942
T: Spailpin Fanach
R: hornpipe
M: 4/4
K: Gmajor
gf|efed B3A|GA (3BAG E3F|G2GF GABc|dedc B2gf|
efed B3A|GA (3BAG E3G|FGAF DEFA|G2F2 G2:|
|:GA|Bdef g2(3efg|agfe d2Bd|edef gfed|e2f2 g2fg|
efed B3A|GA (3BAG E3G|FGAF DEFA|G2F2 G2:|

